static/assets/head_icons_png/woman/yanjing/1038188.svg

<svg xmlns="http://www.w3.org/2000/svg" width="21" height="5"><g transform="translate(-60.25 -29.9)"><path d="M60.45 30.8q.1-.25.75-.5l1.7-.35h1.7l1.25.05h.3l.15.05q1.7.15 2.55.9l.15.1.4.25 1.35.05v.85h-1.4q-.2.05-.25.25l-.3.65q-.65 1.45-2.3 1.6h-1.85l-.65-.05-.55-.05-.8-.15h-.1l-.2-.05q-.55-.2-.85-.6l-.55-.9-.3-.6-.25-.1-.15-.25v-.3l.05-.35.05-.15.1-.35m6.15-.35l-.45-.05-2.5-.1q-1.45.05-1.85.35-.4.25-.45.55l-.05.4q-.05.85.25 1.45.4.85 2.1 1.15l.7.1.3.05h.25l1.55-.15q1-.2 1.45-.6l.05-.05.25-.35.45-1.4q-.05-.85-1.35-1.2l-.7-.15"/><radialGradient id="a" gradientUnits="userSpaceOnUse" gradientTransform="matrix(-.00284 0 0 .00284 70.1 30.15)" spreadMethod="pad" cx="0" cy="0" r="819.2" fx="0" fy="0"><stop offset="0" stop-color="#fff" stop-opacity=".973"/><stop offset="1" stop-color="#fff" stop-opacity="0"/></radialGradient><path d="M70.25 31.6l-1-.05-.1-.1.05-.05 1.05.05v.15" fill="url(#a)"/><radialGradient id="b" gradientUnits="userSpaceOnUse" gradientTransform="matrix(.00333 0 0 .00333 62.3 33.35)" spreadMethod="pad" cx="0" cy="0" r="819.2" fx="0" fy="0"><stop offset="0" stop-color="#fff" stop-opacity=".973"/><stop offset="1" stop-color="#fff" stop-opacity="0"/></radialGradient><path d="M61.05 31.35v.7l.1.9.2.5.25.35q.45.5 1.9.55h.05l-.75-.2q-.75-.25-1.1-.7-.4-.45-.6-2.2l-.05.1" fill="url(#b)"/><radialGradient id="c" gradientUnits="userSpaceOnUse" gradientTransform="matrix(.0061 0 0 .0061 62.2 29.8)" spreadMethod="pad" cx="0" cy="0" r="819.2" fx="0" fy="0"><stop offset="0" stop-color="#fff" stop-opacity=".973"/><stop offset="1" stop-color="#fff" stop-opacity="0"/></radialGradient><path d="M64.8 30.05h-.85l-1.1.05-.9.1-.45.1-.4.2-.3.25-.05.15.75-.35v-.05l.2-.05.2-.05.7-.15.75-.1H64.75l.05-.1" fill="url(#c)"/><radialGradient id="d" gradientUnits="userSpaceOnUse" gradientTransform="matrix(.0067 0 0 .0067 67.35 30.05)" spreadMethod="pad" cx="0" cy="0" r="819.2" fx="0" fy="0"><stop offset="0" stop-color="#fff" stop-opacity=".973"/><stop offset="1" stop-color="#fff" stop-opacity="0"/></radialGradient><path d="M64.75 30.15l.85.05h.1l1.75.3q.9.2 1.25.9l.05-.1-.2-.4-.1-.1-.35-.2-.75-.25-.7-.15-.45-.05H65.85l-.35-.05-.6-.05h-.1l-.05.1" fill="url(#d)"/><radialGradient id="e" gradientUnits="userSpaceOnUse" gradientTransform="rotate(74.14 11.236 61.664) scale(.00268)" spreadMethod="pad" cx="0" cy="0" r="819.2" fx="0" fy="0"><stop offset="0" stop-color="#fff" stop-opacity=".973"/><stop offset="1" stop-color="#fff" stop-opacity="0"/></radialGradient><path d="M67.85 34.05l.2-.2.05-.1v.05q.55-.55.75-1.5l-.4.7-.15.35-.2.2-.2.2-.3.25-.5.2-.55.15-.8.1h.15-.25l1.05.05.9-.25.25-.2" fill="url(#e)"/><path d="M79.5 30.35l.7.6.1.2.05.15V31.95l-.15.25-.25.1q-.1.05-.25.6l-.5.95q-.35.4-.7.5l-.45.1H78l-.8.15-.55.05-.7.05h-1.8q-1.7-.15-2.3-1.6l-.3-.65q-.1-.2-.3-.25h-1.4v-.85l1.4-.05.35-.25.15-.1q.9-.8 2.75-.95h2.75q1.5 0 2.25.35m-2.55-.05l-2.45.1-.5.05-.7.15q-1.3.35-1.3 1.2-.05.75.4 1.4l.25.35.1.05q.4.4 1.45.6l1.55.15H76l.25-.05.75-.1q1.65-.3 2.1-1.15l.2-1.45v-.4l-.5-.55q-.4-.3-1.85-.35"/><radialGradient id="f" gradientUnits="userSpaceOnUse" gradientTransform="matrix(-.00333 0 0 .00333 78.3 33.35)" spreadMethod="pad" cx="0" cy="0" r="819.2" fx="0" fy="0"><stop offset="0" stop-color="#fff" stop-opacity=".973"/><stop offset="1" stop-color="#fff" stop-opacity="0"/></radialGradient><path d="M79.55 31.35l.05.7-.15.9-.15.5-.3.35q-.45.5-1.85.55h-.05l.7-.2q.75-.25 1.15-.7.4-.45.55-2.2l.05.1" fill="url(#f)"/><radialGradient id="g" gradientUnits="userSpaceOnUse" gradientTransform="matrix(-.0061 0 0 .0061 78.4 29.8)" spreadMethod="pad" cx="0" cy="0" r="819.2" fx="0" fy="0"><stop offset="0" stop-color="#fff" stop-opacity=".973"/><stop offset="1" stop-color="#fff" stop-opacity="0"/></radialGradient><path d="M75.85 30.05h.85l1.1.05.85.1.5.1.4.2.3.25v.15l-.7-.35-.05-.05-.2-.05-.2-.05-.7-.15-.75-.1H75.9l-.05-.1" fill="url(#g)"/><radialGradient id="h" gradientUnits="userSpaceOnUse" gradientTransform="matrix(-.0067 0 0 .0067 73.25 30.05)" spreadMethod="pad" cx="0" cy="0" r="819.2" fx="0" fy="0"><stop offset="0" stop-color="#fff" stop-opacity=".973"/><stop offset="1" stop-color="#fff" stop-opacity="0"/></radialGradient><path d="M75.9 30.15l-.9.05h-.1l-1.7.3q-.9.2-1.3.9v-.1l.15-.4.1-.1q.2-.15.35-.2.4-.2.8-.25l.7-.15.4-.05h.35l.4-.05.6-.05h.1l.05.1" fill="url(#h)"/><radialGradient id="i" gradientUnits="userSpaceOnUse" gradientTransform="matrix(-.00073 .00258 .00258 .00073 73.15 34)" spreadMethod="pad" cx="0" cy="0" r="819.2" fx="0" fy="0"><stop offset="0" stop-color="#fff" stop-opacity=".973"/><stop offset="1" stop-color="#fff" stop-opacity="0"/></radialGradient><path d="M72.75 34.05l-.2-.2-.05-.1.05.05q-.55-.55-.75-1.5l.35.7.2.35.15.2.2.2.35.25.45.2.55.15.8.1h-.15.3l-1.05.05-.9-.25-.3-.2" fill="url(#i)"/><radialGradient id="j" gradientUnits="userSpaceOnUse" gradientTransform="matrix(.0032 0 0 .00284 70.4 30.15)" spreadMethod="pad" cx="0" cy="0" r="819.2" fx="0" fy="0"><stop offset="0" stop-color="#fff" stop-opacity=".973"/><stop offset="1" stop-color="#fff" stop-opacity="0"/></radialGradient><path d="M71.5 31.45l-.15.1-1.5.05v-.15l1.6-.05.05.05" fill="url(#j)"/><radialGradient id="k" gradientUnits="userSpaceOnUse" gradientTransform="matrix(.00734 0 0 .00734 79.45 28.55)" spreadMethod="pad" cx="0" cy="0" r="819.2" fx="0" fy="0"><stop offset="0" stop-color="#fff"/><stop offset="1" stop-color="#fff" stop-opacity="0"/></radialGradient><path d="M77.45 32.7l-2.8-1.05-.25-1.1 2.45-.2 1.7.25q.6.3.55 1.05L79 32.9q-.1.55-.45.35l-1.1-.55" fill="url(#k)"/><radialGradient id="l" gradientUnits="userSpaceOnUse" gradientTransform="matrix(-.00734 0 0 .00734 61.05 28.55)" spreadMethod="pad" cx="0" cy="0" r="819.2" fx="0" fy="0"><stop offset="0" stop-color="#fff"/><stop offset="1" stop-color="#fff" stop-opacity="0"/></radialGradient><path d="M63.05 32.7q.75-.35 2.8-1.05l.25-1.1-2.45-.2-1.7.25q-.6.3-.55 1.05l.1 1.25q.1.55.45.35l1.1-.55" fill="url(#l)"/></g></svg>

<?xml version="1.0" encoding="utf-8"?>
<svg version="1.1" id="Layer_1"
xmlns="http://www.w3.org/2000/svg"
xmlns:xlink="http://www.w3.org/1999/xlink"
xmlns:author="http://www.sothink.com"
width="21px" height="5px"
xml:space="preserve">
<g id="636" transform="matrix(1, 0, 0, 1, -60.25, -29.9)">
<path style="fill:#000000;fill-opacity:1" d="M60.45,30.8Q60.55 30.55 61.2 30.3L62.9 29.95L64.6 29.95L65.85 30L66.1 30L66.15 30L66.3 30.05Q68 30.2 68.85 30.95L69 31.05L69.4 31.3L70.75 31.35L70.75 32.2L69.9 32.2L69.35 32.2Q69.15 32.25 69.1 32.45L68.8 33.1Q68.15 34.55 66.5 34.7L65.4 34.7L64.65 34.7L64 34.65L63.45 34.6L62.65 34.45L62.55 34.45L62.35 34.4Q61.8 34.2 61.5 33.8L60.95 32.9L60.65 32.3L60.4 32.2L60.25 31.95L60.25 31.65L60.3 31.3L60.35 31.15L60.45 30.8M66.6,30.45L66.15 30.4L63.65 30.3Q62.2 30.35 61.8 30.65Q61.4 30.9 61.35 31.2L61.3 31.6Q61.25 32.45 61.55 33.05Q61.95 33.9 63.65 34.2L64.35 34.3L64.65 34.35L64.9 34.35L66.45 34.2Q67.45 34 67.9 33.6L67.95 33.55L68.2 33.2L68.65 31.8Q68.6 30.95 67.3 30.6L66.6 30.45" />
<radialGradient
id="RadialGradID_5103" gradientUnits="userSpaceOnUse" gradientTransform="matrix(-0.00283813, 0, 0, 0.00283813, 70.1, 30.15)" spreadMethod ="pad" cx="0" cy="0" r="819.2" fx="0" fy="0" >
<stop  offset="0"  style="stop-color:#FFFFFF;stop-opacity:0.972549" />
<stop  offset="1"  style="stop-color:#FFFFFF;stop-opacity:0" />
</radialGradient>
<path style="fill:url(#RadialGradID_5103) " d="M70.25,31.6L69.25 31.55L69.15 31.45L69.2 31.4L70.25 31.45L70.25 31.6" />
<radialGradient
id="RadialGradID_5104" gradientUnits="userSpaceOnUse" gradientTransform="matrix(0.00332642, 0, 0, 0.00332642, 62.3, 33.35)" spreadMethod ="pad" cx="0" cy="0" r="819.2" fx="0" fy="0" >
<stop  offset="0"  style="stop-color:#FFFFFF;stop-opacity:0.972549" />
<stop  offset="1"  style="stop-color:#FFFFFF;stop-opacity:0" />
</radialGradient>
<path style="fill:url(#RadialGradID_5104) " d="M61.05,31.35L61.05 32.05L61.15 32.95L61.35 33.45L61.6 33.8Q62.05 34.3 63.5 34.35L63.55 34.35L62.8 34.15Q62.05 33.9 61.7 33.45Q61.3 33 61.1 31.25L61.05 31.35" />
<radialGradient
id="RadialGradID_5105" gradientUnits="userSpaceOnUse" gradientTransform="matrix(0.00610352, 0, 0, 0.00610352, 62.2, 29.8)" spreadMethod ="pad" cx="0" cy="0" r="819.2" fx="0" fy="0" >
<stop  offset="0"  style="stop-color:#FFFFFF;stop-opacity:0.972549" />
<stop  offset="1"  style="stop-color:#FFFFFF;stop-opacity:0" />
</radialGradient>
<path style="fill:url(#RadialGradID_5105) " d="M64.8,30.05L63.95 30.05L62.85 30.1L61.95 30.2L61.5 30.3L61.1 30.5L60.8 30.75L60.75 30.9L61.5 30.55L61.5 30.5L61.7 30.45L61.9 30.4L62.6 30.25L63.35 30.15L64.7 30.15L64.75 30.15L64.8 30.05" />
<radialGradient
id="RadialGradID_5106" gradientUnits="userSpaceOnUse" gradientTransform="matrix(0.00669861, 0, 0, 0.00669861, 67.35, 30.05)" spreadMethod ="pad" cx="0" cy="0" r="819.2" fx="0" fy="0" >
<stop  offset="0"  style="stop-color:#FFFFFF;stop-opacity:0.972549" />
<stop  offset="1"  style="stop-color:#FFFFFF;stop-opacity:0" />
</radialGradient>
<path style="fill:url(#RadialGradID_5106) " d="M64.75,30.15L65.6 30.2L65.7 30.2L67.45 30.5Q68.35 30.7 68.7 31.4L68.75 31.3L68.55 30.9L68.45 30.8L68.1 30.6L67.35 30.35L66.65 30.2L66.2 30.15L66.1 30.15L66.05 30.15L65.85 30.15L65.5 30.1L64.9 30.05L64.8 30.05L64.75 30.15" />
<radialGradient
id="RadialGradID_5107" gradientUnits="userSpaceOnUse" gradientTransform="matrix(0.000732422, 0.00257874, -0.00257874, 0.000732422, 67.5, 34)" spreadMethod ="pad" cx="0" cy="0" r="819.2" fx="0" fy="0" >
<stop  offset="0"  style="stop-color:#FFFFFF;stop-opacity:0.972549" />
<stop  offset="1"  style="stop-color:#FFFFFF;stop-opacity:0" />
</radialGradient>
<path style="fill:url(#RadialGradID_5107) " d="M67.85,34.05L68.05 33.85L68.1 33.75L68.1 33.8Q68.65 33.25 68.85 32.3L68.45 33L68.3 33.35L68.1 33.55L67.9 33.75L67.6 34L67.1 34.2L66.55 34.35L65.75 34.45L65.9 34.45L65.65 34.45L66.7 34.5L67.6 34.25L67.85 34.05" />
<path style="fill:#000000;fill-opacity:1" d="M79.5,30.35L80.2 30.95L80.3 31.15L80.35 31.3L80.35 31.65L80.35 31.95L80.2 32.2L79.95 32.3Q79.85 32.35 79.7 32.9L79.2 33.85Q78.85 34.25 78.5 34.35L78.05 34.45L78 34.45L77.2 34.6L76.65 34.65L75.95 34.7L75.25 34.7L74.15 34.7Q72.45 34.55 71.85 33.1L71.55 32.45Q71.45 32.25 71.25 32.2L70.75 32.2L69.85 32.2L69.85 31.35L71.25 31.3L71.6 31.05L71.75 30.95Q72.65 30.15 74.5 30L75.8 30L75.95 30L77.25 30Q78.75 30 79.5 30.35M76.95,30.3L74.5 30.4L74 30.45L73.3 30.6Q72 30.95 72 31.8Q71.95 32.55 72.4 33.2L72.65 33.55L72.75 33.6Q73.15 34 74.2 34.2L75.75 34.35L76 34.35L76.25 34.3L77 34.2Q78.65 33.9 79.1 33.05L79.3 31.6L79.3 31.2L78.8 30.65Q78.4 30.35 76.95 30.3" />
<radialGradient
id="RadialGradID_5108" gradientUnits="userSpaceOnUse" gradientTransform="matrix(-0.00332642, 0, 0, 0.00332642, 78.3, 33.35)" spreadMethod ="pad" cx="0" cy="0" r="819.2" fx="0" fy="0" >
<stop  offset="0"  style="stop-color:#FFFFFF;stop-opacity:0.972549" />
<stop  offset="1"  style="stop-color:#FFFFFF;stop-opacity:0" />
</radialGradient>
<path style="fill:url(#RadialGradID_5108) " d="M79.55,31.35L79.6 32.05L79.45 32.95L79.3 33.45L79 33.8Q78.55 34.3 77.15 34.35L77.1 34.35L77.8 34.15Q78.55 33.9 78.95 33.45Q79.35 33 79.5 31.25L79.55 31.35" />
<radialGradient
id="RadialGradID_5109" gradientUnits="userSpaceOnUse" gradientTransform="matrix(-0.00610352, 0, 0, 0.00610352, 78.4, 29.8)" spreadMethod ="pad" cx="0" cy="0" r="819.2" fx="0" fy="0" >
<stop  offset="0"  style="stop-color:#FFFFFF;stop-opacity:0.972549" />
<stop  offset="1"  style="stop-color:#FFFFFF;stop-opacity:0" />
</radialGradient>
<path style="fill:url(#RadialGradID_5109) " d="M75.85,30.05L76.7 30.05L77.8 30.1L78.65 30.2L79.15 30.3L79.55 30.5L79.85 30.75L79.85 30.9L79.15 30.55L79.1 30.5L78.9 30.45L78.7 30.4L78 30.25L77.25 30.15L75.95 30.15L75.9 30.15L75.85 30.05" />
<radialGradient
id="RadialGradID_5110" gradientUnits="userSpaceOnUse" gradientTransform="matrix(-0.00669861, 0, 0, 0.00669861, 73.25, 30.05)" spreadMethod ="pad" cx="0" cy="0" r="819.2" fx="0" fy="0" >
<stop  offset="0"  style="stop-color:#FFFFFF;stop-opacity:0.972549" />
<stop  offset="1"  style="stop-color:#FFFFFF;stop-opacity:0" />
</radialGradient>
<path style="fill:url(#RadialGradID_5110) " d="M75.9,30.15L75 30.2L74.9 30.2L73.2 30.5Q72.3 30.7 71.9 31.4L71.9 31.3L72.05 30.9L72.15 30.8Q72.35 30.65 72.5 30.6Q72.9 30.4 73.3 30.35L74 30.2L74.4 30.15L74.55 30.15L74.6 30.15L74.75 30.15L75.15 30.1L75.75 30.05L75.85 30.05L75.9 30.15" />
<radialGradient
id="RadialGradID_5111" gradientUnits="userSpaceOnUse" gradientTransform="matrix(-0.000732422, 0.00257874, 0.00257874, 0.000732422, 73.15, 34)" spreadMethod ="pad" cx="0" cy="0" r="819.2" fx="0" fy="0" >
<stop  offset="0"  style="stop-color:#FFFFFF;stop-opacity:0.972549" />
<stop  offset="1"  style="stop-color:#FFFFFF;stop-opacity:0" />
</radialGradient>
<path style="fill:url(#RadialGradID_5111) " d="M72.75,34.05L72.55 33.85L72.5 33.75L72.55 33.8Q72 33.25 71.8 32.3L72.15 33L72.35 33.35L72.5 33.55L72.7 33.75L73.05 34L73.5 34.2L74.05 34.35L74.85 34.45L74.7 34.45L75 34.45L73.95 34.5L73.05 34.25L72.75 34.05" />
<radialGradient
id="RadialGradID_5112" gradientUnits="userSpaceOnUse" gradientTransform="matrix(0.00320435, 0, 0, 0.00283813, 70.4, 30.15)" spreadMethod ="pad" cx="0" cy="0" r="819.2" fx="0" fy="0" >
<stop  offset="0"  style="stop-color:#FFFFFF;stop-opacity:0.972549" />
<stop  offset="1"  style="stop-color:#FFFFFF;stop-opacity:0" />
</radialGradient>
<path style="fill:url(#RadialGradID_5112) " d="M71.5,31.45L71.35 31.55L69.85 31.6L69.85 31.45L71.45 31.4L71.5 31.45" />
<radialGradient
id="RadialGradID_5113" gradientUnits="userSpaceOnUse" gradientTransform="matrix(0.00733948, 0, 0, 0.00733948, 79.45, 28.55)" spreadMethod ="pad" cx="0" cy="0" r="819.2" fx="0" fy="0" >
<stop  offset="0"  style="stop-color:#FFFFFF;stop-opacity:1" />
<stop  offset="1"  style="stop-color:#FFFFFF;stop-opacity:0" />
</radialGradient>
<path style="fill:url(#RadialGradID_5113) " d="M77.45,32.7L74.65 31.65L74.4 30.55L76.85 30.35L78.55 30.6Q79.15 30.9 79.1 31.65L79 32.9Q78.9 33.45 78.55 33.25L77.45 32.7" />
<radialGradient
id="RadialGradID_5114" gradientUnits="userSpaceOnUse" gradientTransform="matrix(-0.00733948, 0, 0, 0.00733948, 61.05, 28.55)" spreadMethod ="pad" cx="0" cy="0" r="819.2" fx="0" fy="0" >
<stop  offset="0"  style="stop-color:#FFFFFF;stop-opacity:1" />
<stop  offset="1"  style="stop-color:#FFFFFF;stop-opacity:0" />
</radialGradient>
<path style="fill:url(#RadialGradID_5114) " d="M63.05,32.7Q63.8 32.35 65.85 31.65L66.1 30.55L63.65 30.35L61.95 30.6Q61.35 30.9 61.4 31.65L61.5 32.9Q61.6 33.45 61.95 33.25L63.05 32.7" />
</g>
</svg>
